icons/arrow-duo-left.svg

<svg width="24" height="24" viewBox="0 0 24 24" fill="none" xmlns="http://www.w3.org/2000/svg">
<path fill-rule="evenodd" clip-rule="evenodd" d="M11.4501 18.25C11.4501 17.8358 11.7859 17.5 12.2001 17.5L18.2001 17.5C18.6143 17.5 18.9501 17.8358 18.9501 18.25C18.9501 18.6642 18.6143 19 18.2001 19L12.2001 19C11.7859 19 11.4501 18.6642 11.4501 18.25Z" fill="black"/>
<path fill-rule="evenodd" clip-rule="evenodd" d="M12.4107 18.3L14.7304 15.9804C15.0233 15.6875 15.0233 15.2126 14.7304 14.9197C14.4375 14.6268 13.9626 14.6268 13.6697 14.9197L11.1697 17.4197C10.6768 17.9126 10.6768 18.6875 11.1697 19.1804L13.6697 21.6804C13.9626 21.9732 14.4375 21.9732 14.7304 21.6804C15.0233 21.3875 15.0233 20.9126 14.7304 20.6197L12.4107 18.3Z" fill="black"/>
<path fill-rule="evenodd" clip-rule="evenodd" d="M6.25 7.94995C6.25 7.53574 6.58579 7.19995 7 7.19995L18.2 7.19995C18.6142 7.19995 18.95 7.53574 18.95 7.94995C18.95 8.36416 18.6142 8.69995 18.2 8.69995L7 8.69995C6.58579 8.69995 6.25 8.36416 6.25 7.94995Z" fill="black"/>
<path fill-rule="evenodd" clip-rule="evenodd" d="M6.55715 8.02258C6.56546 8.04075 6.5854 8.07472 6.63038 8.11969L11.1304 12.6197C11.4233 12.9126 11.4233 13.3875 11.1304 13.6804C10.8375 13.9732 10.3626 13.9732 10.0697 13.6804L5.56972 9.18035C5.25788 8.86851 5.05005 8.46128 5.05005 8.00002C5.05005 7.53877 5.25788 7.13154 5.56972 6.81969L10.0697 2.3197C10.3626 2.0268 10.8375 2.0268 11.1304 2.3197C11.4233 2.61259 11.4233 3.08746 11.1304 3.38035L6.63038 7.88035C6.5854 7.92533 6.56546 7.9593 6.55715 7.97747C6.553 7.98656 6.55135 7.99252 6.5507 7.99545C6.55006 7.9983 6.55005 7.99964 6.55005 8.00002C6.55005 8.00041 6.55006 8.00174 6.5507 8.0046C6.55135 8.00753 6.553 8.01349 6.55715 8.02258Z" fill="black"/>
</svg>

<svg xmlns="http://www.w3.org/2000/svg" fill="none" viewBox="0 0 24 24">
  <path fill="#000" fill-rule="evenodd" d="M11.45 18.25a.75.75 0 0 1 .75-.75h6a.75.75 0 0 1 0 1.5h-6a.75.75 0 0 1-.75-.75Z" clip-rule="evenodd"/>
  <path fill="#000" fill-rule="evenodd" d="m12.41 18.3 2.32-2.32a.75.75 0 0 0-1.06-1.06l-2.5 2.5a1.233 1.233 0 0 0 0 1.76l2.5 2.5a.75.75 0 0 0 1.06-1.06l-2.32-2.32ZM6.25 7.95A.75.75 0 0 1 7 7.2h11.2a.75.75 0 0 1 0 1.5H7a.75.75 0 0 1-.75-.75Z" clip-rule="evenodd"/>
  <path fill="#000" fill-rule="evenodd" d="M6.557 8.023a.351.351 0 0 0 .073.097l4.5 4.5a.75.75 0 0 1-1.06 1.06l-4.5-4.5c-.312-.311-.52-.719-.52-1.18 0-.461.208-.868.52-1.18l4.5-4.5a.75.75 0 0 1 1.06 1.06l-4.5 4.5a.351.351 0 0 0-.073.097A.093.093 0 0 0 6.55 8v.005l.007.018Z" clip-rule="evenodd"/>
</svg>
